newicons/subwaysurf_2.svg

<?xml version="1.0" encoding="UTF-8"?><svg id="b" xmlns="http://www.w3.org/2000/svg" viewBox="0 0 48 48"><defs><style>.d{fill:none;stroke:#fff;stroke-linecap:round;stroke-linejoin:round;}</style></defs><path class="d" d="M17.15,10.82h13.7c1.1123,0,2.1797.4391,2.9699,1.2218.7903.7828,1.2396,1.8459,1.2501,2.9582v26.39c0,.5528-.2167,1.0835-.6038,1.478-.3871.3946-.9136.6215-1.4662.632H15c-.5596,0-1.0963-.2223-1.492-.618-.3957-.3957-.618-.9324-.618-1.492V15c.0052-.5542.1196-1.1019.3365-1.6119.2169-.51.5322-.9723.9277-1.3604.3956-.3882.8638-.6946,1.3778-.9018s1.0638-.3112,1.618-.3059Z"/><path class="d" d="M28.22,4.5h-8.44l-1.05,6.32h10.54l-1.05-6.32Z"/><path class="d" d="M24,9.16c.8284,0,1.5-.6716,1.5-1.5s-.6716-1.5-1.5-1.5-1.5.6716-1.5,1.5.6716,1.5,1.5,1.5Z"/><path class="d" d="M12.93,18.2h22.14"/><path class="d" d="M12.93,38.23h22.14"/><path class="d" d="M19.4506,25.8972c0-2.8076,2.5434-5.0213,5.4523-4.4624,1.9077.3667,3.4315,2.0166,3.6213,3.9501.1413,1.4382-.3139,2.8573-1.3075,3.7293-1.8404,1.615-7.7661,5.9676-7.7661,5.9676h9.0988"/></svg>

<svg width="48" height="48" viewBox="0 0 48 48" fill="none" xmlns="http://www.w3.org/2000/svg">
<g clip-path="url(#clip0_305_108)">
<path d="M17.15 10.82H30.85C31.9623 10.82 33.0297 11.2591 33.8199 12.0418C34.6102 12.8246 35.0595 13.8877 35.07 15V41.39C35.0701 41.9428 34.8533 42.4735 34.4662 42.868C34.0791 43.2626 33.5526 43.4895 33 43.5H15C14.4404 43.5 13.9037 43.2777 13.508 42.882C13.1123 42.4863 12.89 41.9496 12.89 41.39V15C12.8952 14.4458 13.0096 13.8981 13.2265 13.3881C13.4434 12.8781 13.7587 12.4158 14.1542 12.0277C14.5498 11.6395 15.018 11.3331 15.532 11.1259C16.046 10.9187 16.5958 10.8147 17.15 10.82Z" stroke="white" stroke-linecap="round" stroke-linejoin="round"/>
<path d="M28.22 4.5H19.78L18.73 10.82H29.27L28.22 4.5Z" stroke="white" stroke-linecap="round" stroke-linejoin="round"/>
<path d="M24 9.15997C24.8284 9.15997 25.5 8.4884 25.5 7.65997C25.5 6.83155 24.8284 6.15997 24 6.15997C23.1716 6.15997 22.5 6.83155 22.5 7.65997C22.5 8.4884 23.1716 9.15997 24 9.15997Z" stroke="white" stroke-linecap="round" stroke-linejoin="round"/>
<path d="M12.93 18.2H35.07" stroke="white" stroke-linecap="round" stroke-linejoin="round"/>
<path d="M12.93 38.23H35.07" stroke="white" stroke-linecap="round" stroke-linejoin="round"/>
<path d="M19.73 33.57C20.1203 34.0806 20.6323 34.4854 21.2192 34.7474C21.8061 35.0094 22.4492 35.1203 23.09 35.07H25.09C25.998 35.0674 26.8678 34.7048 27.5089 34.0619C28.15 33.4189 28.51 32.548 28.51 31.64C28.51 30.733 28.1497 29.8631 27.5083 29.2217C26.8669 28.5803 25.997 28.22 25.09 28.22H22.88C21.972 28.2174 21.1022 27.8548 20.4611 27.2119C19.82 26.5689 19.46 25.698 19.46 24.79C19.46 23.882 19.82 23.0111 20.4611 22.3682C21.1022 21.7252 21.972 21.3627 22.88 21.36H24.88C25.5218 21.309 26.1662 21.4206 26.7535 21.6845C27.3407 21.9485 27.852 22.3562 28.24 22.87" stroke="white" stroke-linecap="round" stroke-linejoin="round"/>
<path d="M30.27 32.0535C30.27 31.1278 31.1086 30.3979 32.0677 30.5822C32.6967 30.7031 33.1991 31.2471 33.2617 31.8846C33.3083 32.3588 33.1582 32.8267 32.8306 33.1142C32.2238 33.6467 30.27 35.0818 30.27 35.0818H33.27" stroke="white" stroke-linecap="round" stroke-linejoin="round"/>
</g>
<defs>
<clipPath id="clip0_305_108">
<rect width="48" height="48" fill="white"/>
</clipPath>
</defs>
</svg>
